X: 31
T: Ride a White Horse
C: words: Mother Goose
C: music: J. Martin
N: Copyright, 1916, by The Cable Company.
%R: air, waltz
B: "The Everyday Song Book", 1927
F: http://www.library.pitt.edu/happybirthday/pdf/The_Everyday_Song_Book.pdf
Z: 2017 John Chambers <jc:trillian.mit.edu>
M: 3/4
L: 1/4
K: C
% - - - - - - - - - - - - - - -
[|  c B A | G2 G | A G F | E2 E | D E F | G A B | c3- | c2 ||
w: Ride a white horse to Ban-bur-y cross, To see what our dol-ly can buy;*
c | c B A | G2 G | A G F | E2 E | D E F | G2  B | c3- | c2 |]
w: A pen-ny white loaf. A pen-ny white cake, A two-pen-ny ap-ple pie.*
% - - - - - - - - - - - - - - -
